actions/24/draw-geometry-set-bounding-box.svg

<?xml version="1.0" encoding="UTF-8" standalone="no"?>
<svg
   width="24"
   height="24"
   version="1.1"
   id="svg9"
   sodipodi:docname="draw-geometry-set-bounding-box.svg"
   inkscape:version="1.1.2 (0a00cf5339, 2022-02-04)"
   xmlns:inkscape="http://www.inkscape.org/namespaces/inkscape"
   xmlns:sodipodi="http://sodipodi.sourceforge.net/DTD/sodipodi-0.dtd"
   xmlns="http://www.w3.org/2000/svg"
   xmlns:svg="http://www.w3.org/2000/svg">
  <sodipodi:namedview
     id="namedview11"
     pagecolor="#000000"
     bordercolor="#666666"
     borderopacity="1.0"
     inkscape:pageshadow="2"
     inkscape:pageopacity="0"
     inkscape:pagecheckerboard="0"
     showgrid="false"
     inkscape:zoom="28.416667"
     inkscape:cx="11.982405"
     inkscape:cy="11.964809"
     inkscape:window-width="1886"
     inkscape:window-height="967"
     inkscape:window-x="0"
     inkscape:window-y="29"
     inkscape:window-maximized="1"
     inkscape:current-layer="g7" />
  <defs
     id="defs3">
    <style
       id="current-color-scheme"
       type="text/css">
   .ColorScheme-Text { color:#eeeeec; } .ColorScheme-Highlight { color:#367bf0; } .ColorScheme-NeutralText { color:#ffcc44; } .ColorScheme-PositiveText { color:#3db47e; } .ColorScheme-NegativeText { color:#dd4747; }
  </style>
  </defs>
  <g
     transform="translate(4,4)"
     id="g7">
    <path
       style="fill:currentColor"
       class="ColorScheme-Text"
       d="M 0.8307246,5.6230435 0,5.8607042 v 4.2581578 l 0.75618459,0.314 v 0 L 3.407869,8.4440983 v 0 L 3.3583,7.518725 Z M 16,5.7911789 v 0 4.3629811 0 l -0.764081,0.272779 -2.646591,-1.9849431 v 0 l 0.07706,-0.9417908 2.742424,-2.0568176 z M 7,13 h 2 v 1 H 7 Z M 7,2 H 9 V 3 H 7 Z M 3,14 v -4 h 1 v 3 h 2 v 1 z m 10,0 v -4 h -1 v 3 h -2 v 1 z M 13,2 V 6 H 12 V 3 H 10 V 2 Z M 3,2 V 6 H 4 V 3 H 6 V 2 Z"
       id="path5"
       sodipodi:nodetypes="cccccccccccccccccccccccccccccccccccccccccccccccccccccccccc" />
  </g>
</svg>

<svg xmlns="http://www.w3.org/2000/svg" width="24" height="24" version="1.1">
 <defs>
  <style id="current-color-scheme" type="text/css">
   .ColorScheme-Text { color:#eeeeec; } .ColorScheme-Highlight { color:#367bf0; } .ColorScheme-NeutralText { color:#ffcc44; } .ColorScheme-PositiveText { color:#3db47e; } .ColorScheme-NegativeText { color:#dd4747; }
  </style>
 </defs>
 <g transform="translate(4,4)">
  <path style="fill:currentColor" class="ColorScheme-Text" d="M 0,5 V 11 L 4,8 Z M 16,5 V 11 L 12,8 Z M 7,13 H 9 V 14 H 7 Z M 7,2 H 9 V 3 H 7 Z M 3,14 V 10 H 4 V 13 H 6 V 14 Z M 13,14 V 10 H 12 V 13 H 10 V 14 Z M 13,2 V 6 H 12 V 3 H 10 V 2 Z M 3,2 V 6 H 4 V 3 H 6 V 2 Z"/>
 </g>
</svg>
